X:1
T:Dormend'un giorno
T:Dormend'un giorno
T:Jacques Arcadelt
T:Source : Il  primo libro di madrigali a 3 voci---Venetia---A.Gardano---1559. Editor : André Vierendeels (23/10/14).
T:#
C:Jacques Arcadelt
%%score [ 1 2 3 ]
L:1/8
Q:1/4=120
M:2/2
K:C
V:1 treble nm="Canto" snm="C"
V:2 treble nm="Alto" snm="A"
V:3 treble-8 nm="Tenor" snm="T"
V:1
 A4 c2 d2 | e2 e2 f4 | e2 f2 e2 d2- | d2 c2 d4 | z2 f2 f2 f2 | e3 d c2 c2 | dB cd e3 d | %7
w: Dor- men- d'un|gior- n'a Ba-|ia'll om- br'A- mo-|* * re,|do- v'il mur-|mur de fon- ti|piu _ _ _ _ _|
 c2 B3 A A2- |"^#" A2 G2 A4 | z2 A2 c2 d2 | e2 e2 f2 f2 | e2 f2 e2 d2- |"^#" d2 c2 d4 | %13
w: _ gli _ piac-|* * que,|cor sen le|Nym- ph'a ven- di-|car l'ar- do- *|* * re,|
 z2 f2 f2 f2 | e3 d c2 c2 | dB cd e3 d | c2 B3 A A2- | A2 G2 A4- | A8 | z2 d2 d2 c2 | f3 e dc d2 | %21
w: e la fa-|ce gli'as- co- sen|sot- * * * * *|* to _ l'ac-|* * que,|_|ch'il cre- de-|reb- * * * *|
 c2 A4 B2 | c2 e4 d2 | e8 | z2 e2 e2 d2 | e3 d c2 B2 | c2 d2 B4 | A2 e4 f2- | %28
w: be dren- t'a|quel li- quo-|re|su- bi- ta-|men- t'e- ter- no|fo- co nac-|que fo- *|
"^-natural" f2 ed cB AB | cd e3 d d2- |"^#" d2 c2 d4 | z2 A2 A2 A2 | d4 B4 | z2 e2 e2 e2 | %34
w: |* * * * co|_ nac- que,|on- de'a quei|ba- gni,|on- de'a quei|
 f3 e d2 c2 | B2 A4 G2 | A4 d3 c | B2 A4 G2 | A4 z4 | z4 z2 e2 | f6 f2 | e4 d4 | c2 f2 f2 f2 | %43
w: ba- gni sem- pr'il|cal- do du-|ra, sem- pr'il|cal- do du-|ra|che|la fiam-|ma d'a-|mor ac- qua non|
 ed cB AB cd |"^#""^#" e2 d3 c/B/ c2 | d2 f2 f2 f2 | e4 d4 | c2 f2 f2 f2 | ed cB AB cd | %49
w: cu- * * * * * * *||ra, che la fiam-|ma d'a-|mor ac- qua non|cu- * * * * * * *|
"^#" e2 d4 c2 | d8 |] %51
w: |ra.|
V:2
 E4 E2 G2 | G2 G2 A4 | G2 A2 GF ED | E4 D2 A2 | A3 G F2 F2 | G4 A2 A2- | A2 F2 G2 E2- | %7
w: men- d'un gior-|n'a Ba- ia'll|om- br'A- mo- * * *|re, do- v'il|mur- mur de fon-|ti piu gli|_ piac- que, *|
 ED B,2 C2 D2 | B,4 z2 A,2 | C2 D2 E2 G2 | G2 G2 A4 | G2 A2 GF ED | E4 D2 A2 | A3 G F2 F2 | %14
w: |cor sen|le Nym- ph'a ven-|di- car l'ar-|do- re, * * * *|* e la|fa- ce gli'as- co-|
 G4 A2 A2- | A2 F2 G2 E2- | ED B,2 C2 D2 | B,4 A,4 | z2 D2 D2 C2 | F4 E4 | z2 A2 A2 G2 | %21
w: sen sot- to|* l'ac- que, *||* ch'il|cre- de- reb-|be, ch'il|cre- de- reb-|
 A2 F2 F2 F2 | G2 A2 F4 | E2 A2 A2 G2 | A3 G E2 G2- | G2 E2 F2 G2 | E2 A4 G2 | A4 z2 A2 | %28
w: be dren- t'a quel|li- quo- re|su- bi- ta- men-|t'e- * * ter-|* no fo- co|nac- que, *|su- bi-|
 A2 G2 A3 G | F2 E2 F2 G2 | E4 D4- | D4 z2 D2 | D2 D2 G4 | E8 | A6 G2 | F2 E2 D4 | E2 A4 G2 | %37
w: ta- men- t'e- ter-|no fo- co nac-|que, on-|_ dd'a|quei ba- gni|sem-|pr'il cal-|do du- ra,|sem- pr'il cal-|
 F2 E2 D3 E | FG A4 G2- | G2 F2 E4 | D2 F2 F2 F2 | G3 F/E/ F2 G2 | E2 A2 A4 | G4 FG AF | GF ED E4 | %45
w: do du- ra, *|||che la fiam- ma|d'a- _ _ _ mor|ac- qua non|cu- ra, * * *||
 D2 A2 A2 A2 | G4 F4 | E2 A2 A4 | G4 FG AF | GF ED E4 | D8 |] %51
w: che la fiam- ma|d'a- mor|ac- qua non|cu- ra. * * *||Dor-|
V:3
 A4 A2 G2 | c2 c2 FG AB | c2 F2 G2 _B2 | A4 D2 f2 | f3 e d2 d2 | c3 B A2 A2 | d4 c3 B | %7
w: men- d'un gior-|n'a Ba- ia'll * * *|* om- br'A- mo-|re, do- v'il|mur- mur de fon-|ti * * piu|gli piac- _|
 A2 G2 A2 D2 | E4 z2 A2 | A2 D2 A2 G2 | c2 c2 FG AB | c2 F2 G2 _B2 | A4 D2 f2 | f3 e d2 d2 | %14
w: _ _ _ que,|cor sen|le Nym- ph'a ven-|di- car l'ar- _ _ _|_ do- re, *|* e la|fe- ce gli'as- co-|
 c3 B A2 A2 | d4 c3 B | A2 G2 A2 D2 | E4 z2 A2 | F2 D2 A4 | D4 z2 A2 | A2 F2 _B4 | A2 d4 d2 | %22
w: sen * * sot-|to * *|* * l'ac- que,|ch'il cre-|de- reb- be,|ch'il cre-|de- reb- be|dren- t'a quel|
 c2 c2 d4 | A4 e4 | A4 z4 | z4 z2 e2 | e2 d2 e3 d | c2 A2 c2 d2 |"^b" B4 A4- | A2 c2 d2 G2 | %30
w: li- quo- re||su-|bi-|ta- men- t'e- ter-|no fo- co nac-|que fo-|_ co * nac-|
 A4 D4- | D8 | z2 G2 G2 G2 | c4 A4 | f6 e2 | d2 c2 B4 | A2 f4 e2 | d2 c2 B4 | A3 B cd e2- | %39
w: que, on-|_|de'a quei ba-|gni sem-|pr'il cal-|do du- ra,|sem- pr'il cal-|do du- ra,||
 e2 d4 c2 | d2 A2 d2 d2 |"^b" c4 B4 | A2 F2 FG AB |"^-natural" cd ec d2 A2 | c2 d2 A4 | %45
w: |che la fiam- ma|d'a- mor|ac- qua non _ _ _|_ _ _ _ _ cu-|ra, * *|
 D2 d2 d2 A2 | c4 d4 | A2 F2 FG AB | cd ec d2 A2 | c2 d2 A4 | D8 |] %51
w: che la fiam- ma|d'a- mor|ac- qua non _ _ _|_ _ _ _ _ cu-|ra. * *||

